X:1
T:Beneath Montana Skies
T:Beneath Montana Skies
T:BILL NOKES
T:MELVIN KNOYLE
T:1929
T:1929
T:1929
C:BILL NOKES
Z:MELVIN KNOYLE
Z:1929
%%score 1 { 2 | 3 }
L:1/8
Q:1/4=114
M:3/4
K:Eb
V:1 treble nm="Voice"
V:2 treble nm="Piano"
V:3 bass 
V:1
"^Valse Moderato\n" z6 | z6 | z6 | z6 | z6 || z2 z2 G2 | c4 c2 | c4 G2 | B4 B2 | B4 E2 | G4 G2 | %11
w: |||||When|even- ing|comes and|shad- ows|fall if|mem'- ries|
w: |||||At|break of|day, the|sun as-|cends; It's|beams reach|
 G4 G2 | (G6 | G2) z2 F^F | G4 F=E | F4 F^F | G4 F=E | G4 FF | A2 A2 A2 | B4 c2 | (B6 | B6) || %22
w: make you|blue,|_ All you|need is a|rest and a|chance to for-|get; Mo- *|ta- * na|calls to|you||
w: cross the|sky;|_ Then the|wild life a-|wakes and the|mead- ow lark|sings; it's a|thrill that will|nev- er|die|_|
 z2 z2 B,2 |: C3 D EG | c4 G2 | B2 A2 G2 | F6 | D6 | C4 B,2 | (G6 | G4) B,2 | C3 D EG | c6 | %33
w: Be-|neath Mon- ta- na|skies, you'll|find par- a-|dise|wait-|ing for|you.|_ Be-|neath Mon- ta- na|skies,|
w: |||||||||||
 B3 =A _AG | F6 | D6 | C4 B,2 | (E6 | E6) | cB A3 B | cB =A3 c | c2 B2 =A2 | B6 | BA G2 c2 | %44
w: right be- fore your|eyes,|dreams|will come|true.|_|Clouds of gray will|float a- way while|you're look- ing|on.|Hap- pi- ness will|
w: |||||||||||
 cG G4 | GC C2 E2 | F4 B,2 | C3 D EG | c4 GG | c3 =A _AG | F6 | A2 c2 D2 | B4 G2 |1 E6 || %54
w: come to stay,|when the clouds have|gune. You'll|find life is worth|while as you|wear your on- ly|smile.|Be- neath Mon-|ta- na|skies.|
w: ||||||||||
 B2 z2 B,2 :|2 E6 || E6 | E6 |] %58
w: * Be-|skies.|_||
w: ||||
V:2
!p! [GBfa]2 [cf=ac']3 [Fd] | [GBgb]4 [GBdg]2 | ([EGBe]2"_rit." [EA_ce][B,A=B] [FAe][FAcf] | %3
!pp! ([GBeg]6) | [GBeg]6) ||"_a tempo" z z z2 G2 | [EGc]4 [EGc]2 |!p! [EGc]4 [EGc]2 | %8
 [DGB]4 [DGB]2 | [DGB]4 E2 | [CEG]4 [CEG]2 | [=B,FG]4 [B,FG]2 | ([CEG]6 | [CEG]2) z2 [Gf][^F^f] | %14
!f! [Gg]2 [=Ae][Ff] A[=E=e] | [Ff]4 [=Ae]2 | [Gg][=Ae] [Ae][Ff] A[Ef] | [Ff]2 [=Ac]2 [Ff]2 | %18
"_rit." [F=a]2 [=Ac]2 [Acea]2 | [Gb]2 e2 [Acac']2 |!p! [GBb]2 [ABa]2 [GBg]2 | [Adf]6 || %22
 z2!p! z2!f! [B,B]2 |:"_a tempo" [Cc]2 [EG][Dd] [Ee][Fg] | [cc']2 [eg]2 [Gceg]2 | %25
 [Bb]2 [cda]2 [Bdg]2 | [Adf]6 | [Dd]2 [FA]2 [FA]2 | [Cc]2 [FA]2 [D_G][B,B] | [Gg]2 [ce]2 [=Be]2 | %30
 [GBeg]2!p! z2!f! [B,B]2 |"_a tempo" [Cc] [EG]2 [Dd] [Ee][Gg] | [cc']2 [eg]2 [eg]2 | %33
!>(! [GBa]2 z [=Ad=a] [cd_a][Bdg] | [Adf]6!>)! | [Dd]2 [FA]2 [FA]2 | [Cc]2 [FA]2 [FA][B,B] | %37
 [Ee]2 [GB]2 [Gc]2 | [Ec]2 [GB]4 | [ceac'][Beb] [Aea]3 [Bb] | %40
 [^c^e^f^c'][B_e_gb] [=Aea]3 [=c^d^f=c'] | [cegc']2 [Begb]2 b2 | [Gegb]6 | %43
 [Ac=ea][Gceg] [Gceg]2 [ceg=bc']2 | [Acea][Gc=eg] [Gceg]4 | [G=Aeg][CEAc]"_rit." [CEAc]2 [Ece]2 | %46
 [F_Adf]4"_a tempo" [G,B]2 | [Cc]3 [EG] [Dd][Ee] | [cc']2 [eg]2 [Gceg][Gceg] | %49
 [Bdb]3 [=Ad=a] [cd_a][Bdg] | [Adf]6 |!ff! [Acfa]2 [cfac']2 [Dd]2 |!f! [Bdgb]4 [GBdg]2 |1 %53
!p! [EGBe]4 [GBeg]2 || [Bdab]4 [B,B]2 :|2 [EGBe]2!p! [EA_ce][=B,=A=B] [E_Ace][FABf] || %56
!pp! ([GBeg]6 | [GBeg]6) |] %58
V:3
 [F,,F,]2 [F,A,C]2 [F,A,C]2 | [F,,F,]2 [G,B,D]2 [G,B,D]2 | [E,,E,]2 [E,A,_C]2 [E,A,_C]2 | %3
 [E,,E,]2 [E,G,B,]2 [G,B,E]2 |"_8va basso" (E,2"_\n" E,,4) || z6 | [C,,C,]2 [E,G,C]4 | %7
 [G,,,B,,]2 [D,G,B,]4 | [G,,,B,,]2 [D,G,B,]4 | [G,,,B,,]2 [D,G,B,]4 | [C,,C,]2 [C,E,G,]4 | %11
 [D,,A,,B,,]4 [D,,A,,B,,]2 | [C,,C,]2 [C,E,G,]2 [C,E,G,]2 | C,2 [E,G,C]2 z2 | %14
 [F,,C,=A,]2 [F,A,CE]2 z2 | [F,,C,=A,]2 [F,A,CE]2 z2 | [F,,C,=A,]2 [F,A,CE]2 z2 | %17
 [F,,C,=A,]2 [F,A,CE]2 z2 | [F,,C,=A,]2 [F,A,CE]2 [F,A,CE]2 | [F,,C,=A,]2 [F,A,CE]2 [F,A,CE]2 | %20
 [B,,,B,,]2 [F,A,B,D]2 [F,A,B,D]2 | [B,,,B,,]2 [F,A,B,D]4 || z6 |: %23
 [E,,B,,G,]2 [E,G,B,]2 [E,G,B,]2 | [E,,B,,G,]2 [E,G,B,]2 [E,G,B,]2 | %25
 [B,,,B,,]2 [F,A,B,D]2 [F,A,B,D]2 | [F,,F,]2 [F,A,B,D]2 [F,A,B,D]2 | %27
 [B,,,B,,]2 [B,,F,A,]2 [B,,F,A,]2 | [F,,F,]2 [B,,F,A,]2 [B,,D,_G,]2 | [E,,E,]2 [CE]2 [_CE]2 | %30
 [E,,E,]2 [G,B,E]2 z2 | [E,,B,,G,]2 [E,G,B,]2 [E,G,B,]2 | [E,,E,]2 [G,B,E]2 [G,B,E]2 | %33
 [B,,,B,,]2 [F,A,B,D]2 [F,A,B,D]2 | [F,,F,]2 [F,A,B,D]2 [F,A,B,D]2 | %35
 [B,,,B,,]2 [B,,F,A,]2 [B,,F,A,]2 | [F,,F,]2 [B,,F,A,]2 [B,,F,A,]2 | [E,,E,]2 B,2 C2 | %38
 [E,,E,]2 [E,G,_D]2 [E,G,D]2 | [E,G,CE][D,G,D] [C,G,C]3 [D,D] | [A,,,A,,]2 [E,A,C]2 [A,CE]2 | %41
 [E,,B,,G,]2 [G,B,E]2 [G,B,E]2 | [E,,E,]2 [D,,D,]2 [_D,,_D,]2 | [C,,C,]2 [G,B,C=E]2 [G,B,CE]2 | %44
 [C,,C,]2 [G,B,=E]2 [G,B,CE]2 | [F,,C,=B,]2 [C,,C,]2 [=B,,,=B,,]2 | [B,,,B,,]2 [F,A,B,D]2 z2 | %47
 [E,,B,,G,]2 [E,G,B,]2 [E,G,B,]2 | [E,,B,,G,]2 [E,G,B,]2 [E,G,B,]2 | %49
 [B,,,B,,]2 [F,A,B,D]2 [F,A,B,D]2 | [F,,F,]2 [F,A,B,D]2 [F,A,B,D]2 | [F,,F,]2 [F,A,C]2 [F,A,C]2 | %52
 [G,,,G,,]2 [B,,G,B,]2 [B,,G,B,]2 |1 [E,,B,,G,]2 [E,G,B,]2 [E,G,B,]2 || %54
 [B,,,B,,]2 [F,A,B,D]2 z2 :|2 [E,,E,]2 [E,A,_C]2 [E,A,_C]2 || [E,,E,]2 [E,G,B,]2 [E,G,E]2 | %57
 (E, (E,,4 E,,)) |] %58

